X:1
T:Daniel Monroe
M:2/4
L:1/8
K:C
 A2|G-F DD| G/2 G3/2 G3/2 A/2| GF DD| D3 D| FD DD| G2 FG|A-B cB| A2 z G|\
 G2 DD| G2 FG| A2 c3/2 A/2| d3 e| dd cA| GG cA|G-F D3/2 D/2| D2||
